X: 111
T:Mac Donald's Air. JaW.111
M:6/8
L:1/8
Q:80
S:James Winder Ms, Lancashire, 1835-41
R:Air
O:England
A:Wyresdale,Lancashire
H:1/8
Z:vmp.Chris Partington, Aug 2004
K:E
e/f/|gfe edc|BGB BGB|gfe ebg|gff f2(e/f/)|!
gfe edc|BGB BGB|ebg fef|gee e2:|!
|:(B/A/)|GBe ege|Bdf faf|GBe ebg|gff f2(e/f/)|!
gfe edc|BGB BGB|ebg fef|gee e2:|]
